svg/food/ice_cream_2_line.svg

<?xml version="1.0" encoding="UTF-8"?>
<svg width="24px" height="24px" viewBox="0 0 24 24" version="1.1" xmlns="http://www.w3.org/2000/svg" xmlns:xlink="http://www.w3.org/1999/xlink">
    <title>ice_cream_2_line</title>
    <g id="Icon" stroke="none" stroke-width="1" fill="none" fill-rule="evenodd">
        <g id="Food" transform="translate(-326.000000, -250.000000)" fill-rule="nonzero">
            <g id="ice_cream_2_line" transform="translate(326.000000, 250.000000)">
                <path d="M24,0 L24,24 L0,24 L0,0 L24,0 Z M12.5935,23.2578 L12.5819,23.2595 L12.5109,23.295 L12.4919,23.2987 L12.4767,23.295 L12.4057,23.2595 C12.3958,23.2564 12.387,23.259 12.3821,23.2649 L12.378,23.2758 L12.3609,23.7031 L12.3659,23.7235 L12.3769,23.7357 L12.4805,23.8097 L12.4953,23.8136 L12.5071,23.8097 L12.6107,23.7357 L12.6233,23.7197 L12.6267,23.7031 L12.6096,23.2758 C12.6076,23.2657 12.601,23.2593 12.5935,23.2578 Z M12.8584,23.1453 L12.8445,23.1473 L12.6598,23.2397 L12.6499,23.2499 L12.6472,23.2611 L12.6651,23.6906 L12.6699,23.7034 L12.6784,23.7105 L12.8793,23.8032 C12.8914,23.8069 12.9022,23.803 12.9078,23.7952 L12.9118,23.7812 L12.8777,23.1665 C12.8753,23.1546 12.8674,23.147 12.8584,23.1453 Z M12.143,23.1473 C12.1332,23.1424 12.1222,23.1453 12.1156,23.1526 L12.1099,23.1665 L12.0758,23.7812 C12.0751,23.7927 12.0828,23.8019 12.0926,23.8046 L12.1083,23.8032 L12.3092,23.7105 L12.3186,23.7024 L12.3225,23.6906 L12.3404,23.2611 L12.3372,23.2485 L12.3278,23.2397 L12.143,23.1473 Z" id="MingCute"></path>
                <path d="M11.5009,4.71931 C13.6488,2.57143 17.1312,2.57143 19.2791,4.71931 C21.3673361,6.80752667 21.4253427,10.1571625 19.4531197,12.3154764 L19.2791,12.4975 L12.5616,19.215 C11.8216105,19.9548947 10.6461507,19.9938366 9.86037325,19.3318255 L9.73316,19.215 L7.96539,17.4472 L5.84407,19.5686 C5.45355,19.9591 4.82038,19.9591 4.42986,19.5686 C4.06937077,19.2080462 4.04164083,18.6408651 4.34667018,18.2485224 L4.42986,18.1543 L6.55118,16.033 L4.78341,14.2653 C4.04346789,13.5253105 4.00452357,12.3498507 4.66657704,11.5640222 L4.78341,11.4368 L11.5009,4.71931 Z M12.9151,6.13352 L6.19762,12.851 L11.1474,17.8008 L17.8649,11.0833 C19.2317,9.71644 19.2317,7.50036 17.8649,6.13352 C16.498,4.76669 14.282,4.76669 12.9151,6.13352 Z M15.39,9.31551 C15.7805,8.92498 16.4137,8.92498 16.8042,9.31551 C17.1646615,9.67599 17.1923893,10.243225 16.8873834,10.6354978 L16.8042,10.7297 L12.5616,14.9724 C12.1711,15.3629 11.5379,15.3629 11.1474,14.9724 C10.7868462,14.6118462 10.7591112,14.0446651 11.0641953,13.6523224 L11.1474,13.5581 L15.39,9.31551 Z M14.6829,7.19418 C15.0734,7.58471 15.0734,8.21787 14.6829,8.6084 L10.4403,12.851 C10.0497,13.2416 9.41657,13.2416 9.02605,12.851 C8.63553,12.4605 8.63553,11.8273 9.02605,11.4368 L13.2687,7.19418 C13.6592,6.80366 14.2924,6.80366 14.6829,7.19418 Z" id="形状" fill="#09244B"></path>
            </g>
        </g>
    </g>
</svg>

<svg xmlns="http://www.w3.org/2000/svg" width="24" height="24"><g fill="none" fill-rule="nonzero"><path d="M24 0v24H0V0h24ZM12.594 23.258l-.012.002-.071.035-.02.004-.014-.004-.071-.036c-.01-.003-.019 0-.024.006l-.004.01-.017.428.005.02.01.013.104.074.015.004.012-.004.104-.074.012-.016.004-.017-.017-.427c-.002-.01-.009-.017-.016-.018Zm.264-.113-.014.002-.184.093-.01.01-.003.011.018.43.005.012.008.008.201.092c.012.004.023 0 .029-.008l.004-.014-.034-.614c-.003-.012-.01-.02-.02-.022Zm-.715.002a.023.023 0 0 0-.027.006l-.006.014-.034.614c0 .012.007.02.017.024l.015-.002.201-.093.01-.008.003-.011.018-.43-.003-.012-.01-.01-.184-.092Z"/><path fill="#09244B" d="M11.5 4.72a5.5 5.5 0 0 1 7.953 7.595l-.174.183-6.717 6.717a2 2 0 0 1-2.702.117l-.127-.117-1.768-1.768-2.12 2.122a1 1 0 0 1-1.498-1.32l.083-.095 2.121-2.121-1.768-1.768a2 2 0 0 1-.116-2.701l.116-.127 6.718-6.718Zm1.415 1.414L6.198 12.85l4.95 4.95 6.717-6.718a3.5 3.5 0 0 0-4.95-4.95Zm2.475 3.182a1 1 0 0 1 1.497 1.32l-.083.094-4.242 4.242a1 1 0 0 1-1.498-1.32l.083-.094 4.243-4.242Zm-.707-2.122a1 1 0 0 1 0 1.414l-4.243 4.243a1 1 0 1 1-1.414-1.414l4.243-4.243a1 1 0 0 1 1.414 0Z"/></g></svg>
